X:0811
T:A Shepherd once had lost his love.
S:Aird v5 p4
N:a version of Rousseau's Dream?
M:2/4
L:1/8
Q:1/4=60
I: ||
N:Aird writes the short note groups inconsistently: (G/A///B3///)
N:the first two times, (G///A///)B3// for the last
Z:Jack Campin * www.campin.me.uk * 2009
K:G
G/|ddBB         |GG (G/A//<B//)     z|cc Bz/G/|{B}A/>G/ A/>B/ G z/ G/|
   ddBB         |GG (G/A//<B//)     z|cc Bz/G/|{B}A/>G/ A/>B/ G z/ G/|
   ABcd         |ABcd                |ABce    |   dB         Hd z/ d/|
   dd/>d/ BB/>A/|GG (G///A///)B3//  z|cc Bz/G/|{B}A/>G/ A/>B/ G z   |]

